X:3660
T:Mopsi Don
M:6/8
O:Wales
R:Jig
Z:Richard Robinson 
%%TUNEURL: http://www.leeds.ac.uk/music/Info/RRTuneBk/gettune/00000db2.html
%%ID:00000db2
K:G
FGA A2B | A2B AFD | GFG BcB | GFG BcB | \
FGA A2B | A2B AFD | GAB c2B | AGF G2G ::
dBd cAc | BGB AFD | G2G BAG | F2G A2d |\
% not sure I have the ending bar right here. Must listen more
dBd cAc | BGB AFD | BAG edc | B2A G3 :|
